src/assets/img/twitter.svg

<svg xmlns="http://www.w3.org/2000/svg" width="30" height="24" viewBox="0 0 30 24">
  <path fill="#303C42" fill-rule="evenodd" d="M29.8721,2.9141 C29.7221,2.7461 29.4761,2.7011 29.2751,2.8011 C29.0401,2.9191 28.5201,3.0861 27.9511,3.2311 C28.5281,2.5681 29.0101,1.7661 29.2021,1.0581 C29.2571,0.8551 29.1801,0.6411 29.0101,0.5191 C28.8381,0.3971 28.6101,0.3961 28.4381,0.5141 C28.0531,0.7761 26.2441,1.5451 25.1221,1.7681 C23.7291,0.5471 22.3481,0.0001 20.6741,0.0001 C19.4351,0.0001 18.2841,0.3411 16.9431,1.1051 C14.5531,2.4671 14.1911,5.4641 14.3971,7.2211 C7.7891,6.6701 4.0861,2.9881 2.7781,1.3931 C2.6751,1.2681 2.5171,1.1971 2.3561,1.2111 C2.1941,1.2231 2.0481,1.3111 1.9641,1.4501 C1.0921,2.8841 0.8511,4.4931 1.2691,6.1021 C1.5311,7.1111 2.0211,7.9991 2.5731,8.6931 C2.1721,8.4841 1.7781,8.2181 1.4411,7.9501 C1.2911,7.8301 1.0851,7.8091 0.9131,7.8911 C0.7401,7.9751 0.6301,8.1491 0.6301,8.3411 C0.6301,11.2511 2.5921,13.2371 4.2831,14.2181 C3.9101,14.1531 3.5221,14.0481 3.1651,13.9421 C2.9761,13.8861 2.7721,13.9451 2.6441,14.0941 C2.5151,14.2421 2.4861,14.4531 2.5681,14.6311 C3.6041,16.8651 5.6981,18.5101 8.0151,19.0041 C6.0131,20.2541 3.1731,20.8781 0.5561,20.5811 C0.3221,20.5581 0.0961,20.7001 0.0231,20.9281 C-0.0489,21.1551 0.0501,21.4021 0.2601,21.5171 C3.3071,23.1881 6.4721,24.0001 9.9351,24.0001 L9.9571,24.0001 C14.8351,23.9961 19.3751,21.9101 22.7391,18.1281 C25.7891,14.7001 27.3771,10.3541 27.0261,6.4411 C27.8501,5.8591 29.1341,4.7321 29.9191,3.5201 C30.0421,3.3311 30.0231,3.0821 29.8721,2.9141"/>
</svg>

<svg height="24" viewBox="0 0 30 24" width="30" xmlns="http://www.w3.org/2000/svg"><path d="m29.8721 2.9141c-.15-.168-.396-.213-.597-.113-.235.118-.755.285-1.324.43.577-.663 1.059-1.465 1.251-2.173.055-.203-.022-.417-.192-.539-.172-.122-.4-.123-.572-.005-.385.262-2.194 1.031-3.316 1.254-1.393-1.221-2.774-1.768-4.448-1.768-1.239 0-2.39.341-3.731 1.105-2.39 1.362-2.752 4.359-2.546 6.116-6.608-.551-10.311-4.233-11.619-5.828-.103-.125-.261-.196-.422-.182-.162.012-.308.1-.392.239-.872 1.434-1.113 3.043-.695 4.652.262 1.009.752 1.897 1.304 2.591-.401-.209-.795-.475-1.132-.743-.15-.12-.356-.141-.528-.059-.173.084-.283.258-.283.45 0 2.91 1.962 4.896 3.653 5.877-.373-.065-.761-.17-1.118-.276-.189-.056-.393.003-.521.152-.129.148-.158.359-.076.537 1.036 2.234 3.13 3.879 5.447 4.373-2.002 1.25-4.842 1.874-7.459 1.577-.234-.023-.46.119-.533.347-.072.227.027.474.237.589 3.047 1.671 6.212 2.483 9.675 2.483h.022c4.878-.004 9.418-2.09 12.782-5.872 3.05-3.428 4.638-7.774 4.287-11.687.824-.582 2.108-1.709 2.893-2.921.123-.189.104-.438-.047-.606" fill="#303c42" fill-rule="evenodd"/></svg>
